flaticon/user-interface/browser-12.svg

<svg xmlns="http://www.w3.org/2000/svg" width="32" height="32" viewBox="0 0 24 24">
    <path d="M4 12.398438L13.199219 12.398438C13.421875 12.398438 13.601562 12.222656 13.601562 12 13.601562 11.777344 13.421875 11.601562 13.199219 11.601562L4 11.601562C3.777344 11.601562 3.601562 11.777344 3.601562 12 3.601562 12.222656 3.777344 12.398438 4 12.398438zM4 10.800781L13.199219 10.800781C13.421875 10.800781 13.601562 10.621094 13.601562 10.398438 13.601562 10.179688 13.421875 10 13.199219 10L4 10C3.777344 10 3.601562 10.179688 3.601562 10.398438 3.601562 10.621094 3.777344 10.800781 4 10.800781zM4 10.800781"/>
    <path d="M22 6.800781L2 6.800781 2 17.199219 22 17.199219zM21.199219 16.398438L2.800781 16.398438 2.800781 7.601562 21.199219 7.601562zM2.800781 1.199219C1.917969 1.199219 1.199219 1.917969 1.199219 2.800781 1.199219 3.683594 1.917969 4.398438 2.800781 4.398438 3.683594 4.398438 4.398438 3.683594 4.398438 2.800781 4.398438 1.917969 3.683594 1.199219 2.800781 1.199219zM2.800781 3.601562C2.359375 3.601562 2 3.242188 2 2.800781 2 2.359375 2.359375 2 2.800781 2 3.242188 2 3.601562 2.359375 3.601562 2.800781 3.601562 3.242188 3.242188 3.601562 2.800781 3.601562zM6.398438 1.199219C5.519531 1.199219 4.800781 1.917969 4.800781 2.800781 4.800781 3.683594 5.519531 4.398438 6.398438 4.398438 7.28125 4.398438 8 3.683594 8 2.800781 8 1.917969 7.28125 1.199219 6.398438 1.199219zM6.398438 3.601562C5.957031 3.601562 5.601562 3.242188 5.601562 2.800781 5.601562 2.359375 5.957031 2 6.398438 2 6.839844 2 7.199219 2.359375 7.199219 2.800781 7.199219 3.242188 6.839844 3.601562 6.398438 3.601562zM10 1.199219C9.117188 1.199219 8.398438 1.917969 8.398438 2.800781 8.398438 3.683594 9.117188 4.398438 10 4.398438 10.882812 4.398438 11.601562 3.683594 11.601562 2.800781 11.601562 1.917969 10.882812 1.199219 10 1.199219zM10 3.601562C9.558594 3.601562 9.199219 3.242188 9.199219 2.800781 9.199219 2.359375 9.558594 2 10 2 10.441406 2 10.800781 2.359375 10.800781 2.800781 10.800781 3.242188 10.441406 3.601562 10 3.601562zM10 3.601562"/>
    <path d="M 0 0 L 0 24 L 24 24 L 24 0 Z M 0.800781 0.800781 L 23.199219 0.800781 L 23.199219 4.800781 L 0.800781 4.800781 Z M 23.199219 23.199219 L 0.800781 23.199219 L 0.800781 5.601562 L 23.199219 5.601562 Z M 23.199219 23.199219"/>
    <path d="M10 13.199219L3.601562 13.199219 3.601562 15.601562 10 15.601562zM9.199219 14.800781L4.398438 14.800781 4.398438 14 9.199219 14zM11.601562 21.601562L11.601562 18 2 18 2 21.601562zM2.800781 18.800781L10.800781 18.800781 10.800781 20.800781 2.800781 20.800781zM12.398438 21.601562L22 21.601562 22 18 12.398438 18zM13.199219 18.800781L21.199219 18.800781 21.199219 20.800781 13.199219 20.800781zM13.199219 18.800781"/>
</svg>

<svg xmlns="http://www.w3.org/2000/svg" width="32" height="32" viewBox="0 0 24 24">
    <path d="M4 12.398h9.2a.398.398 0 1 0 0-.796H4a.395.395 0 0 0-.398.398c0 .223.175.398.398.398zm0 0M4 10.8h9.2a.401.401 0 0 0 0-.8H4a.398.398 0 0 0-.398.398c0 .223.175.403.398.403zm0 0"/>
    <path d="M22 6.8H2v10.4h20zm-.8 9.598H2.8V7.602h18.4zm0 0M2.8 1.2c-.882 0-1.6.718-1.6 1.6a1.6 1.6 0 1 0 1.6-1.6zm0 2.402A.802.802 0 0 1 2.8 2a.802.802 0 0 1 0 1.602zm0 0M6.398 1.2A1.6 1.6 0 1 0 8 2.801c0-.884-.719-1.603-1.602-1.603zm0 2.402a.799.799 0 0 1-.796-.801.799.799 0 1 1 1.597 0c0 .441-.36.8-.8.8zm0 0M10 1.2c-.883 0-1.602.718-1.602 1.6A1.6 1.6 0 0 0 10 4.399a1.6 1.6 0 0 0 1.602-1.597c0-.883-.72-1.602-1.602-1.602zm0 2.402A.802.802 0 0 1 10 2a.802.802 0 0 1 0 1.602zm0 0"/>
    <path d="M0 0v24h24V0zm.8.8h22.4v4H.8zm22.4 22.4H.8V5.601h22.4zm0 0"/>
    <path d="M10 13.2H3.602v2.402H10zm-.8 1.6H4.397V14H9.2zm0 0M11.602 21.602V18H2v3.602zM2.8 18.8h8v2h-8zm0 0M12.398 21.602H22V18h-9.602zM13.2 18.8h8v2h-8zm0 0"/>
</svg>
